X:1
T:Title
%%score { 1 | ( 2 3 ) }
L:1/8
M:6/8
K:Bb
V:1 treble nm="Grand Piano"
V:2 bass 
V:3 bass 
V:1
 z3 z2[Q:1/4=90] [DF] | [B,D][CE][DF] [EG]2 [DF] | [DB]2 [Ec] [Fd]2 [Fd] | dcB A2 B | c2 d c3 | %5
[M:1/8] [DF] |[M:3/4] [B,D][CE] [DF] [EG]2 [DF] | B2 c d2 d | ed [=E_d] [F=d]2 [B,DB] | %9
 [CA]B c [DB]3 |[M:1/8] [DB] |[M:3/4] c2 cc Bc | d2 c [DB]2 [FA] | G2 GG AB | cB G [DF]3 | %15
[M:1/8] [DF] |[M:3/4] [B,D][CE] [DF] [EG]2 [DF] | B2 c d2 d | ed [=E_d] [F=d]2 [B,DB] | %19
[M:7/4] [CA]Bc [DB]3 z2 z2 z4 |] %20
V:2
 z3 z2 [B,,B,] | [B,,F,]2 [B,,B,] [B,,B,]2 [B,,B,] | [B,,B,]2 [B,,B,] [B,,B,]2 [B,,B,] | .F3 z3 | %4
 [F,A,F]2 [F,B,F] [F,A,F]3 |[M:1/8] [B,,B,] |[M:3/4] [B,,F,]2 [B,,B,] [B,,B,]2 [B,,B,] | %7
 [G,B,D]2 [F,A,F] [B,F]2 [B,F] | .G2[K:bass] z2 z2 | z D [F,E] [B,,F,]3 |[M:1/8] [B,,B,] | %11
[M:3/4] [F,A,E]2 [F,A,E][A,E] [B,D][F,A,F] | [F,B,F]2 [F,A,E] [B,,B,]2 [D,B,] | %13
 [E,B,E]2 [E,B,E] [E,B,E]2 [E,G,E] | [E,G,E]2 [E,B,E] [B,,B,]3 |[M:1/8] [B,,B,] | %16
[M:3/4] [B,,F,]2 [B,,B,] [B,,B,]2 [B,,B,] | [G,B,D]2 [F,A,F] [B,F]2 [B,F] | GF[K:bass] B, B,2 B,, | %19
[M:7/4] z D[F,E] [B,,F,]3 z2 z2 z4 |] %20
V:3
 x6 | x6 | x6 | F,-[F,E][F,D] [F,C]2 [F,D] | x6 |[M:1/8] x |[M:3/4] x6 | x6 | %8
 B,-[B,F][K:bass] B, B,2 B,, | F,2 z2 z2 |[M:1/8] x |[M:3/4] z2 z .F,3 | x6 | x6 | x6 |[M:1/8] x | %16
[M:3/4] x6 | x6 | B,2[K:bass] z2 z2 |[M:7/4] F,2 z2 z2 z2 z2 z4 |] %20

